localPackages/DesignSystem/Sources/DesignSystem/Resources/Assets.xcassets/IconSet/ic-swipe-left.imageset/ic-swipe-left.svg

<svg width="24" height="24" viewBox="0 0 24 24" fill="none" xmlns="http://www.w3.org/2000/svg">
<g id="ic-swipe-left">
<path id="Icon" fill-rule="evenodd" clip-rule="evenodd" d="M6.66595 3.74371C9.74745 0.950009 14.4853 0.705627 17.8606 3.36652C18.1859 3.62296 18.6574 3.56714 18.9139 3.24185C19.1703 2.91657 19.1145 2.44498 18.7892 2.18854C14.8448 -0.920979 9.31674 -0.647357 5.70068 2.59435C5.01662 2.16596 4.12445 2.12034 3.37664 2.55259C2.29895 3.17552 1.93037 4.5544 2.55205 5.63242L8.1615 15.3596L6.43594 15.0965C5.19885 14.9079 4.06758 15.8207 3.98724 17.0686C3.9189 18.13 4.64245 19.0807 5.68472 19.2955L12.7104 20.7436C12.9209 20.787 13.1031 20.9185 13.2108 21.1053L13.2188 21.1192L14.3509 22.9021C14.5729 23.2517 15.0364 23.3552 15.386 23.1332C15.7357 22.9112 15.8392 22.4477 15.6172 22.098L14.5014 20.3408C14.1786 19.7911 13.6381 19.4033 13.0132 19.2745L5.98753 17.8264C5.67926 17.7628 5.46379 17.4811 5.48414 17.165C5.50807 16.7933 5.84438 16.5237 6.20983 16.5794L8.85898 16.9833C9.73179 17.1164 10.3665 16.1807 9.92738 15.4192L3.85146 4.88308C3.64293 4.52147 3.76704 4.05949 4.1273 3.85125C4.48705 3.6433 4.94746 3.76635 5.1557 4.12745L7.57529 8.32321C8.09203 9.21926 9.15213 9.64886 10.1468 9.364L13.4707 8.41203L16.1837 7.7699C16.5068 7.69342 16.8424 7.83806 17.0089 8.12685L20.1813 13.628C20.3074 13.8467 20.3161 14.1143 20.2042 14.3407L19.7162 15.3288C19.3825 16.0045 19.4082 16.8023 19.7847 17.4551L19.7951 17.4732L21.8722 20.6528C22.0988 20.9995 22.5635 21.097 22.9103 20.8705C23.2571 20.6439 23.3545 20.1792 23.128 19.8324L21.0756 16.6907C20.9576 16.4748 20.9519 16.2143 21.0612 15.993L21.5491 15.005C21.8828 14.3293 21.8572 13.5314 21.4807 12.8786L18.3083 7.37751C17.811 6.51516 16.8071 6.0809 15.8382 6.31023L13.0913 6.96039L9.73376 7.92198C9.40203 8.01698 9.04776 7.87394 8.87471 7.57387L6.66595 3.74371Z" fill="#0F0F0F"/>
</g>
</svg>

<svg xmlns="http://www.w3.org/2000/svg" width="24" height="24" viewBox="0 0 24 24">
  <g class="ic-swipe-left">
    <path fill-rule="evenodd" d="M6.666 3.743a8.681 8.681 0 0 1 11.195-.377.75.75 0 1 0 .928-1.178c-3.944-3.11-9.472-2.836-13.088.405a2.256 2.256 0 0 0-3.149 3.038l5.61 9.728-1.726-.264a2.132 2.132 0 0 0-.751 4.2l7.025 1.448c.21.043.393.175.5.361l.009.014 1.132 1.783a.75.75 0 1 0 1.266-.804l-1.116-1.757a2.254 2.254 0 0 0-1.488-1.067l-7.025-1.448a.633.633 0 0 1 .222-1.247l2.649.404a1.05 1.05 0 0 0 1.068-1.564L3.851 4.882a.756.756 0 0 1 .276-1.032.752.752 0 0 1 1.029.276l2.42 4.196a2.253 2.253 0 0 0 2.57 1.041l3.325-.952 2.713-.642a.752.752 0 0 1 .825.357l3.172 5.501a.757.757 0 0 1 .023.713l-.488.988a2.256 2.256 0 0 0 .069 2.126l.01.018 2.077 3.18a.75.75 0 0 0 1.256-.82l-2.052-3.142a.756.756 0 0 1-.015-.698l.488-.988a2.256 2.256 0 0 0-.068-2.126l-3.173-5.501a2.253 2.253 0 0 0-2.47-1.068l-2.747.65-3.357.962a.752.752 0 0 1-.86-.348l-2.208-3.83Z" class="Icon"/>
  </g>
</svg>
